Newaita/actions/32/tool-tweak.svg

<svg height="32" viewBox="0 0 32 32" width="32" xmlns="http://www.w3.org/2000/svg"><path d="m21.832031 4.226562c-.152343 0-.304687.023438-.449219.078126-3.558593 1.28125-7.765624 3.125-11.167968 5.386718-3.40625 2.261719-6.238282 4.980469-6.238282 8.417969v1.984375h-.007812v6.617188c0 .734374.589844 1.324218 1.324219 1.324218h21.167969c.734374 0 1.324218-.589844 1.324218-1.324218v-6.617188h-.007812v-1.984375c0-1.394531-.886719-2.390625-1.722656-3.132813-.835938-.742187-1.75-1.378906-2.464844-2.097656-.71875-.71875-1.230469-1.457031-1.417969-2.453125-.183594-.996093-.058594-2.351562.855469-4.332031.1875-.40625.152344-.882812-.085938-1.257812-.242187-.378907-.660156-.609376-1.109375-.609376zm-2.152343 3.554688c-.246094 1.148438-.269532 2.191406-.09375 3.128906.308593 1.648438 1.203124 2.898438 2.140624 3.832032.933594.9375 1.925782 1.621093 2.578126 2.203124.652343.582032.839843.910157.839843 1.164063v1.984375h-.007812v4.632812c0 .367188-.292969.660157-.660157.660157h-17.199218c-.367188 0-.664063-.292969-.664063-.660157v-4.632812h-.003906v-1.984375c0-1.851563 1.945313-4.15625 5.0625-6.226563 2.355469-1.566406 5.253906-2.972656 8.007813-4.101562zm0 0" fill="#424242"/></svg>

<svg xmlns="http://www.w3.org/2000/svg" xmlns:xlink="http://www.w3.org/1999/xlink" width="32px" height="32px" viewBox="0 0 32 32" version="1.1">
<g id="surface1">
     <defs>
  <style id="current-color-scheme" type="text/css">
   .ColorScheme-Text { color:#424242; } .ColorScheme-Highlight { color:#eeeeee; }
  </style>
 </defs>
<path style="fill:currentColor" class="ColorScheme-Text" d="M 21.832031 4.226562 C 21.679688 4.226562 21.527344 4.25 21.382812 4.304688 C 17.824219 5.585938 13.617188 7.429688 10.214844 9.691406 C 6.808594 11.953125 3.976562 14.671875 3.976562 18.109375 L 3.976562 20.09375 L 3.96875 20.09375 L 3.96875 26.710938 C 3.96875 27.445312 4.558594 28.035156 5.292969 28.035156 L 26.460938 28.035156 C 27.195312 28.035156 27.785156 27.445312 27.785156 26.710938 L 27.785156 20.09375 L 27.777344 20.09375 L 27.777344 18.109375 C 27.777344 16.714844 26.890625 15.71875 26.054688 14.976562 C 25.21875 14.234375 24.304688 13.597656 23.589844 12.878906 C 22.871094 12.160156 22.359375 11.421875 22.171875 10.425781 C 21.988281 9.429688 22.113281 8.074219 23.027344 6.09375 C 23.214844 5.6875 23.179688 5.210938 22.941406 4.835938 C 22.699219 4.457031 22.28125 4.226562 21.832031 4.226562 Z M 19.679688 7.78125 C 19.433594 8.929688 19.410156 9.972656 19.585938 10.910156 C 19.894531 12.558594 20.789062 13.808594 21.726562 14.742188 C 22.660156 15.679688 23.652344 16.363281 24.304688 16.945312 C 24.957031 17.527344 25.144531 17.855469 25.144531 18.109375 L 25.144531 20.09375 L 25.136719 20.09375 L 25.136719 24.726562 C 25.136719 25.09375 24.84375 25.386719 24.476562 25.386719 L 7.277344 25.386719 C 6.910156 25.386719 6.613281 25.09375 6.613281 24.726562 L 6.613281 20.09375 L 6.609375 20.09375 L 6.609375 18.109375 C 6.609375 16.257812 8.554688 13.953125 11.671875 11.882812 C 14.027344 10.316406 16.925781 8.910156 19.679688 7.78125 Z M 19.679688 7.78125 "/>
</g>
</svg>
